icons/OpenLotus/actions/22/labplot-xy-fourier-filter-curve.svg

<?xml version="1.0" encoding="UTF-8" standalone="no"?>
<!-- Created with Inkscape (http://www.inkscape.org/) -->

<svg
   xmlns:dc="http://purl.org/dc/elements/1.1/"
   xmlns:cc="http://creativecommons.org/ns#"
   xmlns:rdf="http://www.w3.org/1999/02/22-rdf-syntax-ns#"
   xmlns:svg="http://www.w3.org/2000/svg"
   xmlns="http://www.w3.org/2000/svg"
   xmlns:sodipodi="http://sodipodi.sourceforge.net/DTD/sodipodi-0.dtd"
   xmlns:inkscape="http://www.inkscape.org/namespaces/inkscape"
   width="22.000002"
   height="22"
   viewBox="0 0 22.000002 22"
   version="1.1"
   id="main"
   inkscape:version="0.92+devel (5e751a51be, 2017-10-02, custom)"
   sodipodi:docname="labplot-xy-fourier-filter-curve.svg">
  <defs
     id="ol-defs">
    <style
       id="current-color-scheme"
       type="text/css">
      .ColorScheme-Text {
        color:#f2f2f2;
      }
      .ColorScheme-Highlight {
        color:#3daee9;
      }
      </style>
  </defs>
  <sodipodi:namedview
     id="base"
     pagecolor="#002466"
     bordercolor="#ffffff"
     borderopacity="0.30"
     inkscape:pageopacity="1"
     inkscape:pageshadow="0"
     inkscape:zoom="13.140625"
     inkscape:document-units="px"
     inkscape:current-layer="main"
     inkscape:document-rotation="0"
     showgrid="false"
     inkscape:showpageshadow="false"
     borderlayer="true"
     inkscape:window-width="1920"
     inkscape:window-height="1027"
     inkscape:window-x="0"
     inkscape:window-y="24"
     inkscape:window-maximized="1"
     units="px"
     inkscape:cx="6.5947884"
     inkscape:cy="8.0269054" />
  <metadata
     id="metadata5">
    <rdf:RDF>
      <cc:Work
         rdf:about="">
        <dc:format>image/svg+xml</dc:format>
        <dc:type
           rdf:resource="http://purl.org/dc/dcmitype/StillImage" />
        <dc:title></dc:title>
      </cc:Work>
    </rdf:RDF>
  </metadata>
  <g
     id="g852"
     inkscape:label="#labplot-xy-fourier-filter-curve"
     style="stroke:none">
    <path
       style="fill:none;stroke:none;stroke-width:1"
       d="M 0,0 H 22.000001 V 22 H 0 Z"
       id="boundary"
       inkscape:label="#boundary"
       inkscape:connector-curvature="0" />
    <path
       inkscape:label="#"
       inkscape:connector-curvature="0"
       id="path814"
       d="M 3,3 V 4 7 H 4 V 4 H 7 V 3 H 4 Z m 12,0 v 1 h 3 v 3 h 1 V 4 3 H 18 Z M 3,15 v 3 1 H 7 V 18 H 4 v -3 z m 15,0 v 3 h -3 v 1 h 4 v -1 -3 z"
       style="opacity:0.78481014;fill:#d0d0d0;fill-opacity:1;stroke:none" />
    <path
       inkscape:label="#"
       inkscape:connector-curvature="0"
       id="path841"
       d="M 10,3 V 6 H 7 6 v 7 H 3 v 1 h 7 v 5 h 1 v -5 h 8 V 13 H 16 V 6 H 15 11 V 3 Z M 7,7 h 3 v 6 H 7 Z m 4,0 h 4 v 6 h -4 z"
       style="opacity:0.4;fill:#ffffff;fill-opacity:1;stroke:none" />
    <path
       inkscape:label="#"
       id="path816"
       class="ColorScheme-Highlight"
       d="M 11,5 C 10.09558,5 9.3630583,5.6034836 8.7695312,6.3652344 8.1760043,7.1269864 7.685626,8.095759 7.28125,9.056641 6.472498,10.978403 6.0136719,12.882813 6.0136719,12.882812 l 0.9726562,0.234376 c 0,0 0.4474039,-1.845591 1.2167969,-3.673829 C 8.587822,8.529241 9.0544716,7.6230136 9.5566406,6.9785156 10.056781,6.3366186 10.556129,6.0065983 10.994141,6.0039062 c 0.4208,0.01378 0.782978,0.1849888 1.15625,0.5429688 0.375823,0.360428 0.739876,0.9081416 1.076171,1.587891 0.643616,1.300928 1.184369,3.072232 1.722657,4.865234 h 1.046875 c -0.0052,-0.0174 -0.01041,-0.03338 -0.01563,-0.05078 C 15.41832,11.074493 14.857287,9.175514 14.123047,7.6914062 13.755927,6.9493522 13.345582,6.307366 12.841797,5.8242188 12.338012,5.3410719 11.715369,5.0192827 11.013672,5 h -0.0059 z"
       style="fill:#00ff00;fill-opacity:1;stroke:none"
       inkscape:connector-curvature="0" />
  </g>
</svg>

<svg xmlns="http://www.w3.org/2000/svg" viewBox="0 0 22 22">
  <defs id="defs3051">
    <style type="text/css" id="current-color-scheme">
      .ColorScheme-Text {
        color:#f2f2f2;
      }
      .ColorScheme-Highlight {
        color:#3daee9;
      }
      </style>
  </defs>
 <path 
     style="fill:currentColor;fill-opacity:1;stroke:none" 
     d="M 3 3 L 3 4 L 3 7 L 4 7 L 4 4 L 7 4 L 7 3 L 4 3 L 3 3 z M 10 3 L 10 6 L 7 6 L 6 6 L 6 13 L 3 13 L 3 14 L 10 14 L 10 19 L 11 19 L 11 14 L 19 14 L 19 13 L 16 13 L 16 6 L 15 6 L 11 6 L 11 3 L 10 3 z M 15 3 L 15 4 L 18 4 L 18 7 L 19 7 L 19 4 L 19 3 L 18 3 L 15 3 z M 7 7 L 10 7 L 10 13 L 7 13 L 7 7 z M 11 7 L 15 7 L 15 13 L 11 13 L 11 7 z M 3 15 L 3 18 L 3 19 L 7 19 L 7 18 L 4 18 L 4 15 L 3 15 z M 18 15 L 18 18 L 15 18 L 15 19 L 19 19 L 19 18 L 19 15 L 18 15 z "
     class="ColorScheme-Text"
     />
 <path 
     style="fill:currentColor;fill-opacity:1;stroke:none" 
     d="M 11,5 C 10.09558,5 9.3630583,5.6034836 8.7695312,6.3652344 8.1760043,7.1269864 7.685626,8.095759 7.28125,9.056641 6.472498,10.978403 6.0136719,12.882813 6.0136719,12.882812 l 0.9726562,0.234376 c 0,0 0.4474039,-1.845591 1.2167969,-3.673829 C 8.587822,8.529241 9.0544716,7.6230136 9.5566406,6.9785156 10.056781,6.3366186 10.556129,6.0065983 10.994141,6.0039062 c 0.4208,0.01378 0.782978,0.1849888 1.15625,0.5429688 0.375823,0.360428 0.739876,0.9081416 1.076171,1.587891 0.643616,1.300928 1.184369,3.072232 1.722657,4.865234 l 1.046875,0 c -0.0052,-0.0174 -0.01041,-0.03338 -0.01563,-0.05078 C 15.41832,11.074493 14.857287,9.175514 14.123047,7.6914062 13.755927,6.9493522 13.345582,6.307366 12.841797,5.8242188 12.338012,5.3410719 11.715369,5.0192827 11.013672,5 l -0.0059,0 z"
     class="ColorScheme-Highlight"
     />
</svg>
